X: 84
T:Lock My Heart
% Nottingham Music Database
S:J. Eaton \& T. Shand, via PR
M:4/4
L:1/4
K:D
"D"dd cB|dd cB|"D"F2 -F/2E/2D|F3A/2A/2|"D"BA FD|"A/dim""d#"=cB "E7"AF|
"A"A4-|A2 A/2^D/2E/2F/2|"Em"GG2F|"A7"A4|"D6"BB2A|"Bm"d4|"A"ce cB|\
"E7"c/2e3/2 cB|
"A"A/2BA/2 BA|ec/2B/2 -B/2A/2B/2A/2|"D"dd cB|dd cB|"D"F2 -F/2E/2D|
F3d/2c/2|"D"dB AF|"D7"E=F ^FD|"G"B4-|B2 B/2^A/2B/2c/2|"G""g"dd cB|\
"E7""g#"dd cB|
"D""a"AF/2c/2 -"F#7"cc|"B7"B2 -B/2^A/2B/2c/2|"E7"dB dB|"E7"dB "A7"ff|"D"d4-|d4\
||


